X: 196
T: No_54_Cow_Creek_Hunting_Dance_Song_(u).krn
N: Derived from No_54_Cow_Creek_Hunting_Dance_Song_(u).krn
%%abc-version 2.0
%%abcx-abcm2ps-target-version 5.9.1 (29 Sep 2008)
%%abc-creator hum2abc beta
%%abcx-conversion-date 2019/03/15 08:38:45
%%humdrum-veritas 530742788
%%humdrum-veritas-data 2264300929
%%linebreak <none>
%%barnumbers 0
L: 1/8
M: 2/4
K: E clef=bass
[K:clef=bass][M:2/4](CB,)B,2 | 
(CB,)B,2 | 
(CB,)B,2 | 
B,A, G,E, ||  
[M:3/4]A,4z2 ||  
[M:2/4](CB,)B,2 | 
(CB,)B,2 | 
(CB,)B,2 | 
B,A, G,E, | 
A,4 | 
G,2B,2 | 
B,A, G,E, ||  
[M:3/4]A,4A,2 | 
G,4E,2 | 
E,2z2E,2 ||  
[M:2/4]E,4 ||  
[M:3/4](B,2G,2)B,2 ||  
[M:2/4]B,A, G,E, ||  
[M:3/4]A,4A,2 | 
G,4E,2 | 
E,2z2E,2 ||  
[M:2/4]E,4 | 
(B,G,)G,2 | 
G,E, E,B,, | 
E,4 | 
G,2G,2 | 
G,E, E,B,, | 
E,4 | 
G,3/G,/E,2 | 
E,4 | 
G,E, E,B,, | 
E,4 | 
G,2E,E, | 
E,4 ||  
[M:3/4]G,G, E,B,,E,2 ||  
[M:2/4]B,2B,2 | 
(CB,)B,2 | 
CB,B,2 | 
B,A, G,E, | 
A,4 | 
G,2B,2 | 
B,A, G,E, ||  
[M:3/4]A,4A,2 | 
G,4E,2 ||  
[M:2/4]E,2z2 | 
E,2E,2 |]  



